src/assets/empty.svg

<svg width="448" height="266" viewBox="0 0 448 266" fill="none">
  <path
    d="M318.518 121.335C315.016 100.375 296.765 84.4022 274.777 84.4022H184.856C162.877 84.4022 144.629 100.362 141.115 121.31C140.709 123.705 140.5 126.169 140.5 128.68V206.89C140.5 209.401 140.709 211.861 141.115 214.256C143.912 230.945 156.065 244.471 172.011 249.276C176.076 250.503 180.389 251.164 184.856 251.164H274.777C279.243 251.164 283.556 250.503 287.622 249.276C303.572 244.467 315.729 230.933 318.518 214.231C318.919 211.844 319.128 209.393 319.128 206.89V128.68C319.128 126.178 318.919 123.723 318.518 121.335ZM282.386 249.276C279.914 249.715 277.373 249.945 274.777 249.945H184.856C182.26 249.945 179.719 249.715 177.246 249.276C157.056 245.69 141.726 228.077 141.726 206.89V180.93C141.726 107.575 201.293 85.6256 274.777 85.6256C298.597 85.6256 317.907 104.902 317.907 128.68V206.89C260.082 214.615 302.577 245.69 282.386 249.276Z"
    fill="#3F3D56" />
  <path d="M247.71 143.421L251.169 165.868L301.907 158.961L297.007 132.735L247.71 143.421Z" fill="#009EDD" />
  <path d="M287.53 17.4636H266.552V39.1398H287.53V17.4636Z" fill="#2F2E41" />
  <path d="M268.466 40.3963L273.655 24.8562H283.77L284.302 40.3963H268.466Z" fill="#FFB6B6" />
  <path opacity="0.1" d="M268.466 40.3963L273.655 24.8562H283.77L284.302 40.3963H268.466Z" fill="black" />
  <path
    d="M273.944 178.818L273.367 238.676L272.791 243.28V249.89L281.439 250.762L282.016 237.524C282.016 237.524 291.241 211.624 288.935 191.48C286.628 171.335 287.781 177.091 287.781 177.091L273.944 178.818Z"
    fill="#FFB6B6" />
  <path
    d="M279.434 183.518L258.157 239.484L257.017 243.983L254.608 250.14L246.234 247.812L250.521 235.272C250.521 235.272 251.366 207.796 260.856 189.869C270.345 171.942 267.173 176.885 267.173 176.885L279.434 183.518Z"
    fill="#FFB6B6" />
  <path
    d="M268.466 38.6696L252.899 45.5763L262.839 96.8078L261.268 170.338L250.89 192.21C250.89 192.21 249.151 204.718 267.025 196.66C284.899 188.602 305.078 186.3 305.078 186.3L300.178 152.63L295.853 64.2819L296.43 44.7129L283.745 36.6552L268.466 38.6696V38.6696Z"
    fill="#2F2E41" />
  <path
    d="M259.796 193.009L242.521 164.141L262.262 96.8078L252.899 45.5763L269.326 38.5563C269.326 38.5563 277.83 46.8227 277.83 53.641C277.83 60.4593 259.796 193.009 259.796 193.009Z"
    fill="#E6E6E6" />
  <path
    d="M297.273 187.253L281.592 52.7872C281.394 51.0893 281.684 49.3703 282.429 47.8311L286.916 38.5563L304.502 43.5618L297.433 98.5344L316.322 152.63L297.273 187.253H297.273Z"
    fill="#E6E6E6" />
  <path
    d="M283.169 249.611C283.169 249.611 272.214 243.28 271.061 246.733C269.908 250.187 269.331 253.064 269.331 253.064C269.331 253.064 266.448 264 275.097 264C283.745 264 283.169 259.026 283.169 259.026V249.611Z"
    fill="#2F2E41" />
  <path
    d="M245.042 246.111C245.042 246.111 257.554 244.192 257.369 247.828C257.185 251.463 256.673 254.353 256.673 254.353C256.673 254.353 255.374 265.586 247.318 262.446C239.262 259.305 241.611 254.882 241.611 254.882L245.042 246.111Z"
    fill="#2F2E41" />
  <path
    d="M279.387 33.314C287.303 33.314 293.721 26.908 293.721 19.0057C293.721 11.1035 287.303 4.69742 279.387 4.69742C271.471 4.69742 265.053 11.1035 265.053 19.0057C265.053 26.908 271.471 33.314 279.387 33.314Z"
    fill="#FFB6B6" />
  <path
    d="M290.839 6.25495C290.171 2.72716 286.544 0.34103 282.96 0.0418153C279.376 -0.257399 275.865 1.09351 272.638 2.67741C270.45 3.7511 268.296 4.96128 266.524 6.63253C264.752 8.30378 263.375 10.487 263.057 12.8998C262.945 13.7535 262.959 14.6454 262.609 15.4324C262.172 16.4154 261.233 17.083 260.667 17.998C259.651 19.6389 260.118 22.0261 261.677 23.1651C259.717 23.9991 257.702 24.8691 256.208 26.3857C254.713 27.9022 253.85 30.2437 254.67 32.2072C254.961 32.9019 255.44 33.51 255.688 34.2207C256.159 35.5704 255.711 37.1038 254.876 38.2645C254.04 39.4253 252.861 40.286 251.703 41.1263C254.68 41.7087 257.718 42.1624 260.738 41.8907C263.759 41.6191 266.791 40.5623 268.978 38.4652C271.165 36.368 272.369 33.133 271.584 30.2086C270.983 27.9683 269.301 26.0053 269.302 23.686C269.303 21.9033 270.307 20.2951 271.277 18.798L277.63 8.9894C278.011 8.40127 278.413 7.79267 279.015 7.43295C280.039 6.82098 281.367 7.0901 282.447 7.59803C283.526 8.10597 284.512 8.83471 285.663 9.14965C288.013 9.79241 290.738 8.31631 291.479 5.99985"
    fill="#2F2E41" />
  <path
    d="M282.372 35.3537C281.177 36.5083 279.456 36.8802 277.861 37.3481C276.265 37.816 274.569 38.5518 273.851 40.0489C273.147 41.5168 273.658 43.3801 274.823 44.5181C275.989 45.656 277.682 46.1354 279.312 46.1128C280.942 46.0902 282.531 45.6133 284.064 45.0595C288.256 43.5453 292.226 41.4211 295.811 38.775C293.489 38.1338 291.97 35.4275 292.635 33.1161C293.175 31.2359 294.829 29.9245 295.954 28.3228C297.891 25.565 298.213 21.9298 297.572 18.6231C296.931 15.3164 295.42 12.2511 293.926 9.23138C293.454 8.2768 292.97 7.30607 292.233 6.53636C291.496 5.76667 290.453 5.21524 289.392 5.32551C287.631 5.50851 286.507 7.43774 286.495 9.20459C286.483 10.9714 287.26 12.632 287.849 14.2982C288.455 16.0148 288.877 17.8345 288.714 19.6476C288.578 21.167 288.024 22.647 287.13 23.8838C286.439 24.839 285.559 25.6406 284.808 26.5492C284.227 27.2517 283.712 28.0474 283.56 28.9454C283.282 30.5795 284.242 32.2329 283.979 33.8694C283.701 35.5993 281.877 36.9237 280.143 36.6556"
    fill="#2F2E41" />
  <path
    d="M238.534 235.198C265.601 235.198 287.543 213.295 287.543 186.276C287.543 159.257 265.601 137.353 238.534 137.353C211.468 137.353 189.526 159.257 189.526 186.276C189.526 213.295 211.468 235.198 238.534 235.198Z"
    fill="#009EDD" />
  <path
    d="M252.218 136.518C251.625 140.758 248.952 143.889 246.249 143.511C243.546 143.134 241.837 139.391 242.431 135.15C242.646 133.453 243.264 131.831 244.234 130.421L246.976 112.489L255.379 113.953L251.784 131.476C252.33 133.098 252.479 134.827 252.218 136.518Z"
    fill="#FFB6B6" />
  <path
    d="M259.529 44.713C259.529 44.713 250.881 41.8352 249.728 52.1952C248.574 62.5552 247.421 75.2175 247.421 75.2175C247.421 75.2175 242.232 87.3041 244.538 93.6353C246.845 99.9664 250.881 95.5523 246.845 100.925C242.809 106.298 243.371 123.974 243.371 123.974L256.358 123.322C256.358 123.322 263.565 75.793 263.565 74.6419C263.565 73.4908 259.529 44.7129 259.529 44.7129V44.713Z"
    fill="#E6E6E6" />
  <path
    d="M315.745 134.594C315.906 138.872 313.825 142.422 311.097 142.524C308.37 142.626 306.03 139.24 305.869 134.961C305.782 133.252 306.106 131.548 306.813 129.99L306.362 111.856L314.891 111.825L314.431 129.705C315.254 131.207 315.704 132.883 315.745 134.594V134.594Z"
    fill="#FFB6B6" />
  <path
    d="M302.431 44.5186C302.431 44.5186 311.129 41.7955 312.097 52.1744C313.064 62.5534 313.991 81.5653 313.991 81.5653C313.991 81.5653 318.963 93.7426 316.544 100.032C314.124 106.321 310.168 101.835 314.107 107.279C318.046 112.723 316.633 128.074 316.633 128.074L303.659 127.19C303.659 127.19 297.839 81.8528 297.86 80.7019C297.88 79.551 302.431 44.5186 302.431 44.5186V44.5186Z"
    fill="#E6E6E6" />
  <path
    d="M273.373 182.332H266.142C265.017 175.702 261.545 169.699 256.361 165.417C244.43 155.562 226.77 157.246 216.915 169.177C216.882 169.215 216.849 169.254 216.818 169.294C216.031 170.315 216.22 171.78 217.241 172.568C218.261 173.355 219.727 173.166 220.514 172.146C224.795 166.959 231.275 163.659 238.52 163.659C249.612 163.66 259.172 171.464 261.394 182.332H255.017C254.745 182.332 254.481 182.427 254.271 182.602C253.776 183.015 253.709 183.75 254.121 184.246L263.299 195.263C263.344 195.317 263.394 195.367 263.448 195.412C263.943 195.824 264.679 195.758 265.091 195.263L274.269 184.246C274.444 184.036 274.539 183.772 274.54 183.499C274.54 182.855 274.017 182.332 273.373 182.332V182.332Z"
    fill="white" />
  <path
    d="M259.799 201.432C258.778 200.645 257.313 200.834 256.525 201.854C253.13 205.966 248.429 208.791 243.205 209.861C230.571 212.447 218.232 204.302 215.645 191.668H222.022C222.667 191.668 223.189 191.145 223.189 190.501C223.189 190.228 223.093 189.964 222.918 189.754L213.741 178.737C213.328 178.242 212.592 178.175 212.097 178.588C212.043 178.633 211.993 178.683 211.948 178.737L202.77 189.754C202.358 190.25 202.425 190.985 202.92 191.398C203.13 191.573 203.394 191.668 203.667 191.668H210.898C212.023 198.298 215.494 204.301 220.679 208.583C232.61 218.438 250.27 216.754 260.124 204.823C260.158 204.785 260.19 204.746 260.221 204.706C261.009 203.685 260.82 202.22 259.799 201.432H259.799V201.432Z"
    fill="white" />
  <path d="M447.5 264.442H0.5V265.802H447.5V264.442Z" fill="#3F3D56" />
</svg>

<svg width="448" height="266" fill="none" xmlns="http://www.w3.org/2000/svg"><path d="M318.518 121.335c-3.502-20.96-21.753-36.933-43.741-36.933h-89.921c-21.979 0-40.227 15.96-43.741 36.908a44.087 44.087 0 00-.615 7.37v78.21c0 2.511.209 4.971.615 7.366 2.797 16.689 14.95 30.215 30.896 35.02a44.389 44.389 0 0012.845 1.888h89.921c4.466 0 8.779-.661 12.845-1.888 15.95-4.809 28.107-18.343 30.896-35.045.401-2.387.61-4.838.61-7.341v-78.21c0-2.502-.209-4.957-.61-7.345zm-36.132 127.941a43.475 43.475 0 01-7.609.669h-89.921c-2.596 0-5.137-.23-7.61-.669-20.19-3.586-35.52-21.199-35.52-42.386v-25.96c0-73.355 59.567-95.304 133.051-95.304 23.82 0 43.13 19.276 43.13 43.054v78.21c-57.825 7.725-15.33 38.8-35.521 42.386z" fill="#3F3D56"/><path d="M247.71 143.421l3.459 22.447 50.738-6.907-4.9-26.226-49.297 10.686z" fill="#009EDD"/><path d="M287.53 17.464h-20.978V39.14h20.978V17.464z" fill="#2F2E41"/><path d="M268.466 40.396l5.189-15.54h10.115l.532 15.54h-15.836z" fill="#FFB6B6"/><path opacity=".1" d="M268.466 40.396l5.189-15.54h10.115l.532 15.54h-15.836z" fill="#000"/><path d="M273.944 178.818l-.577 59.858-.576 4.604v6.61l8.648.872.577-13.238s9.225-25.9 6.919-46.044c-2.307-20.145-1.154-14.389-1.154-14.389l-13.837 1.727z" fill="#FFB6B6"/><path d="M279.434 183.518l-21.277 55.966-1.14 4.499-2.409 6.157-8.374-2.328 4.287-12.54s.845-27.476 10.335-45.403c9.489-17.927 6.317-12.984 6.317-12.984l12.261 6.633z" fill="#FFB6B6"/><path d="M268.466 38.67l-15.567 6.906 9.94 51.232-1.571 73.53-10.378 21.872s-1.739 12.508 16.135 4.45c17.874-8.058 38.053-10.36 38.053-10.36l-4.9-33.67-4.325-88.348.577-19.57-12.685-8.057-15.279 2.015z" fill="#2F2E41"/><path d="M259.796 193.009l-17.275-28.868 19.741-67.333-9.363-51.232 16.427-7.02s8.504 8.267 8.504 15.085c0 6.818-18.034 139.368-18.034 139.368zM297.273 187.253L281.592 52.787a8.986 8.986 0 01.837-4.956l4.487-9.275 17.586 5.006-7.069 54.972 18.889 54.096-19.049 34.623z" fill="#E6E6E6"/><path d="M283.169 249.611s-10.955-6.331-12.108-2.878a58.931 58.931 0 00-1.73 6.331S266.448 264 275.097 264c8.648 0 8.072-4.974 8.072-4.974v-9.415zM245.042 246.111s12.512-1.919 12.327 1.717c-.184 3.635-.696 6.525-.696 6.525s-1.299 11.233-9.355 8.093c-8.056-3.141-5.707-7.564-5.707-7.564l3.431-8.771z" fill="#2F2E41"/><path d="M279.387 33.314c7.916 0 14.334-6.406 14.334-14.308s-6.418-14.309-14.334-14.309c-7.916 0-14.334 6.407-14.334 14.309 0 7.902 6.418 14.308 14.334 14.308z" fill="#FFB6B6"/><path d="M290.839 6.255c-.668-3.528-4.295-5.914-7.879-6.213-3.584-.3-7.095 1.052-10.322 2.635-2.188 1.074-4.342 2.284-6.114 3.956-1.772 1.67-3.149 3.854-3.467 6.267-.112.854-.098 1.745-.448 2.532-.437.983-1.376 1.651-1.942 2.566-1.016 1.64-.549 4.028 1.01 5.167-1.96.834-3.975 1.704-5.469 3.22-1.495 1.517-2.358 3.859-1.538 5.822.291.695.77 1.303 1.018 2.014.471 1.35.023 2.883-.812 4.044-.836 1.16-2.015 2.021-3.173 2.861 2.977.583 6.015 1.036 9.035.765 3.021-.272 6.053-1.329 8.24-3.426 2.187-2.097 3.391-5.332 2.606-8.256-.601-2.24-2.283-4.204-2.282-6.523.001-1.783 1.005-3.39 1.975-4.888l6.353-9.809c.381-.588.783-1.196 1.385-1.556 1.024-.612 2.352-.343 3.432.165 1.079.508 2.065 1.237 3.216 1.552 2.35.642 5.075-.834 5.816-3.15" fill="#2F2E41"/><path d="M282.372 35.354c-1.195 1.154-2.916 1.526-4.511 1.994-1.596.468-3.292 1.204-4.01 2.7-.704 1.469-.193 3.332.972 4.47 1.166 1.138 2.859 1.617 4.489 1.595 1.63-.023 3.219-.5 4.752-1.053a46.304 46.304 0 0011.747-6.285c-2.322-.641-3.841-3.347-3.176-5.659.54-1.88 2.194-3.192 3.319-4.793 1.937-2.758 2.259-6.393 1.618-9.7-.641-3.307-2.152-6.372-3.646-9.392-.472-.954-.956-1.925-1.693-2.695-.737-.77-1.78-1.32-2.841-1.21-1.761.183-2.885 2.112-2.897 3.879-.012 1.766.765 3.427 1.354 5.093.606 1.717 1.028 3.536.865 5.35a8.58 8.58 0 01-1.584 4.236c-.691.955-1.571 1.757-2.322 2.665-.581.703-1.096 1.498-1.248 2.396-.278 1.634.682 3.288.419 4.924-.278 1.73-2.102 3.055-3.836 2.787" fill="#2F2E41"/><path d="M238.534 235.198c27.067 0 49.009-21.903 49.009-48.922s-21.942-48.923-49.009-48.923c-27.066 0-49.008 21.904-49.008 48.923 0 27.019 21.942 48.922 49.008 48.922z" fill="#009EDD"/><path d="M252.218 136.518c-.593 4.24-3.266 7.371-5.969 6.993-2.703-.377-4.412-4.12-3.818-8.361a10.722 10.722 0 011.803-4.729l2.742-17.932 8.403 1.464-3.595 17.523c.546 1.622.695 3.351.434 5.042z" fill="#FFB6B6"/><path d="M259.529 44.713s-8.648-2.878-9.801 7.482c-1.154 10.36-2.307 23.023-2.307 23.023s-5.189 12.086-2.883 18.417c2.307 6.331 6.343 1.917 2.307 7.29-4.036 5.372-3.474 23.049-3.474 23.049l12.987-.652s7.207-47.529 7.207-48.68c0-1.151-4.036-29.93-4.036-29.93v.001z" fill="#E6E6E6"/><path d="M315.745 134.594c.161 4.278-1.92 7.828-4.648 7.93-2.727.102-5.067-3.284-5.228-7.563a10.71 10.71 0 01.944-4.971l-.451-18.134 8.529-.031-.46 17.88a10.706 10.706 0 011.314 4.889z" fill="#FFB6B6"/><path d="M302.431 44.519s8.698-2.724 9.666 7.655c.967 10.38 1.894 29.391 1.894 29.391s4.972 12.178 2.553 18.467c-2.42 6.289-6.376 1.803-2.437 7.247 3.939 5.444 2.526 20.795 2.526 20.795l-12.974-.884s-5.82-45.337-5.799-46.488c.02-1.151 4.571-36.183 4.571-36.183z" fill="#E6E6E6"/><path d="M273.373 182.332h-7.231a28.019 28.019 0 00-9.781-16.915c-11.931-9.855-29.591-8.171-39.446 3.76a2.335 2.335 0 103.599 2.969c4.281-5.187 10.761-8.487 18.006-8.487 11.092.001 20.652 7.805 22.874 18.673h-6.377a1.168 1.168 0 00-.896 1.914l9.178 11.017a1.165 1.165 0 001.792 0l9.178-11.017a1.168 1.168 0 00-.896-1.914zM259.799 201.432a2.335 2.335 0 00-3.274.422 23.348 23.348 0 01-13.32 8.007c-12.634 2.586-24.973-5.559-27.56-18.193h6.377a1.167 1.167 0 00.896-1.914l-9.177-11.017a1.167 1.167 0 00-1.793 0l-9.178 11.017a1.168 1.168 0 00.897 1.914h7.231a28.014 28.014 0 009.781 16.915c11.931 9.855 29.591 8.171 39.445-3.76a2.333 2.333 0 00-.325-3.391z" fill="#fff"/><path d="M447.5 264.442H.5v1.36h447v-1.36z" fill="#3F3D56"/></svg>
